X:405
T:Calliope House
M:6/8
K:E
B| eBB gBB|fBB gfe|cff f2 e|fge c2 A|
BcB B2 G|B2 c e2 f|gag gfe|f3 fec|
Bee gBB|fBB gfe|cff f2 e|fge c2 A|
BcB B2 G|B2 c e2 f|gbg f2 e|e3 ega|
b2 b gbb|fbb efg|a3 gag|fgf fec|
BcB B2 G|B2 c e2 f|gag gfe|g3 fga|
b2 b gbb|fbb efg|a3 gag|fgf fec|
BcB B2 G|B2 c e2 f|gbg f2 e|e3 egf|>|
